!!!!SEGMENT: pl-kk--kk-i-40--002-003_monte-philippe-de--missa-sanctus.krn
!!!cenid: 16xx:1283
!!!COM: Monte, Philippe de
!!!COM-rismid: pe30005218
!!!CDT: 1521-1603/07/04
!!!CNT: Flemish
!!!OTL: Missa – Sanctus
!!!PDT:
!!!AGN: Sacred; Mass
!!!SMS-siglum: PL-Kk
!!!SMS-shelfmark: Kk.I.40
!!!SMS-shelfwork: 002-003 M
!!!SMS-variant:
!!!SMS-altvar:
!!!NIFC-rismid: 1001154488
!!!URL-scan: http://repozytorium.nifc.pl/skany/pl-kk-nut--i-40
!!!ONB-nifc: UWAGA: części Mszy: 1. Kyrie, 2. Et in terra, 3. Sanctus, 4. Agnus Dei. Skan 0005
**kern	**text
*I"Baſso Ripieno.	*
*I'B rip	*
*clefF3	*
*k[b-]	*
*g:	*
*M2/1	*
*met(c|)	*
=1-	=1-
!LO:TX:t=P:problem:oddech/cezura na różnej wyokości:global	!
!LO:TX:t=P:problem:znaki:BB- pod B-	!
!LO:TX:t=P:problem:kreska pseudotaktowa	!
!LO:N:vis=00	!
00r	.
=2-	=2-
.	.
=3-	=3-
*2\right	*
2.B-\	San-
!LO:TX:t=P:problem:kreska pseudotaktowa	!
4A\	.
4G\	.
4F\	.
1G\	.
=4-	=4-
.	.
!LO:TX:t=P:problem:kreska pseudotaktowa	!
2F\	.
1E-X	-ctus
=5-	=5-
!LO:TX:t=P:problem:kreska pseudotaktowa	!
1D,	.
2.d\	San-
!LO:TX:t=P:problem:kreska pseudotaktowa	!
4c\	.
=6-	=6-
4B-\	.
4A\	.
!LO:TX:t=P:problem:kreska pseudotaktowa	!
2G\	.
2D,/	-ctus
2.G\	San-
=7-	=7-
.	.
4A\	.
4B-\	.
!LO:TX:t=P:problem:kreska pseudotaktowa	!
4c\	.
2.d\	.
8c\L	.
!LO:TX:t=P:problem:kreska pseudotaktowa	!
8B-\J	.
=8-	=8-
2.A\	.
4B-\	.
2c\	.
2C/	-ctus
=9-	=9-
!LO:TX:t=P:problem:kreska pseudotaktowa	!
1G,	.
0r	.
=10-	=10-
.	.
1D	Do-
=11-	=11-
1.E-X	.
!LO:TX:t=P:problem:kreska pseudotaktowa	!
2D/	-mi-
=12-	=12-
2C,/	-n(us)
(>2.G\	De-
4A\	.
4B-\	.
!LO:TX:t=P:problem:kreska pseudotaktowa	!
!LO:SIC:v:t=custos d	!
4c\)	.
!LO:LB:g=original	!
=13-	=13-
2d\	-us
!LO:TX:t=P:problem:kreska pseudotaktowa	!
2D/	.
2G\	Sab-
2c\	-ba-
=14-	=14-
!LO:TX:t=P:problem:kreska pseudotaktowa	!
1B-,	-oth
0r	.
=15-	=15-
.	.
2.F\	Do-
4F\	-mi-
=16-	=16-
!LO:TX:t=P:problem:kreska pseudotaktowa	!
1D	-n(us)
2.C/	De-
!LO:TX:t=P:problem:kreska pseudotaktowa	!
4C/	-(us)
=17-	=17-
2D/	Sab-
2E-X/	-ba-
!LO:TX:t=P:problem:kreska pseudotaktowa	!
1D,	-oth
=18-	=18-
1B-	Ple-
2B-\	-ni
!LO:TX:t=P:problem:kreska pseudotaktowa	!
2BB-/	sunt
=19-	=19-
0B-	cae-
=20-	=20-
2G\	-li
2E-X/	et
!LO:TX:t=P:problem:kreska pseudotaktowa	!
1B-	ter-
=21-	=21-
2F,\	-ra
2.G\	glo-
4G\	-ri-
!LO:TX:t=P:problem:kreska pseudotaktowa	!
2F#X\	-a
=22-	=22-
2.G\	tu-
8Fny/L	.
!LO:TX:t=P:problem:kreska pseudotaktowa	!
8Eny/J	.
1D	.
=23-	=23-
!LO:TX:i:a:t=Osanna\nsuper\nSanct(us)	!
0G;>	-a.
!LO:LB:g=original	!
=24||-	=24||-
*k[b-]	*
*M2/1	*
*met(c|)	*
1.G	Be-
!LO:TX:t=P:problem:kreska pseudotaktowa	!
2G\	-ne-
=25-	=25-
1G	-di-
2F,/	-ct(us)
!LO:TX:t=P:problem:kreska pseudotaktowa	!
2D/	qui
=26-	=26-
0F	ve-
=27-	=27-
!LO:TX:t=P:problem:kreska pseudotaktowa	!
0C,	-nit
=28-	=28-
0r	.
=29-	=29-
2r	.
1c	Be-
!LO:TX:t=P:problem:kreska pseudotaktowa	!
2c\	-ne-
=30-	=30-
1c	-di-
2B-,\	-ct(us)
!LO:TX:t=P:problem:kreska pseudotaktowa	!
2G\	qui
=31-	=31-
1.B-	ve-
4F\	.
!LO:TX:t=P:problem:kreska pseudotaktowa	!
4G\	.
=32-	=32-
4A\	.
4B-\	.
2c\	.
1F	.
=33-	=33-
!LO:TX:t=P:problem:kreska pseudotaktowa	!
0C	-nit
=34-	=34-
0r	.
=35-	=35-
2r	.
!LO:TX:t=P:problem:kreska pseudotaktowa	!
2F/	in
1A	N(o-
=36-	=36-
2G\	-mi)-
2G\	-ne
!LO:TX:t=P:problem:kreska pseudotaktowa	!
1F	.
=37-	=37-
!LO:TX:t=P:problem:kreska pseudotaktowa	!
1r	.
1G	in
=38-	=38-
2F/	No-
4E-X/	.
!LO:TX:t=P:problem:kreska pseudotaktowa	!
4D/	.
2E-/	.
2F/	-mi-
=39-	=39-
2BB-,/	-ne
!LO:TX:t=P:problem:kreska pseudotaktowa	!
2B-\	in
!LO:LB:g=original	!
2B-\	No-
!LO:TX:t=P:problem:kreska pseudotaktowa	!
2A\	.
=40-	=40-
2G\	.
!LO:TX:t=P:problem:kreska pseudotaktowa	!
2G\	-mi-
2F,/	-ne
4Eny/	Do-
!LO:TX:t=P:problem:kreska pseudotaktowa	!
4D/	.
=41-	=41-
2E/	.
!LO:TX:t=P:problem:kreska pseudotaktowa	!
2F/	-mi-
2G\	-ni
4r	.
!LO:TX:t=P:problem:kreska pseudotaktowa	!
4G\	in
=42-	=42-
2F/	No-
4E/	.
!LO:TX:t=P:problem:kreska pseudotaktowa	!
4D/	.
2E/	.
!LO:TX:t=P:problem:kreska pseudotaktowa	!
2F\	-mi-
=43-	=43-
2.G\	-ne
8F/L	.
!LO:TX:t=P:problem:kreska pseudotaktowa	!
8E/J	.
2D/	.
4r	.
!LO:TX:t=P:problem:kreska pseudotaktowa	!
4d\	in
=44-	=44-
2c\	No-
4B-\	.
!LO:TX:t=P:problem:kreska pseudotaktowa	!
4A\	.
2B-\	.
!LO:TX:t=P:problem:kreska pseudotaktowa	!
2c\	-mi-
=45-	=45-
2F,/	-ne
4r	.
!LO:TX:t=P:problem:kreska pseudotaktowa	!
*	*ij
4d\	in
2c\	No-
4B-\	.
!LO:TX:t=P:problem:kreska pseudotaktowa	!
4A\	.
=46-	=46-
(>2B-\	-mi-
!LO:TX:t=P:problem:kreska pseudotaktowa	!
2c\)	.
2F,/	-ne
*	*Xij
!LO:TX:t=P:problem:kreska pseudotaktowa:między nutą a kropką	!
!LO:SIC:v:t=custos F	!
2.G\	Do-
!LO:LB:g=original	!
=47-	=47-
.	.
4F/	.
4E-X/	.
!LO:TX:t=P:problem:kreska pseudotaktowa	!
4D/	.
2C/	.
!LO:TX:t=P:problem:kreska pseudotaktowa	!
2D/	.
=48-	=48-
2.C/	.
4C/	-mi-
!LO:N:vis=0	!
1G;>	-ni.
!LO:LB:g=original	!
=49||-	=49||-
*M2/1	*
*met(c|)	*
!LO:N:vis=00	!
00r	.
=50-	=50-
.	.
=51-	=51-
!LO:TX:t=P:problem:kreska pseudotaktowa	!
1r	.
1BB-	O-
=52-	=52-
1F	-san-
!LO:TX:t=P:problem:kreska pseudotaktowa	!
1G	-na
=53-	=53-
2A\	in
!LO:TX:t=P:problem:kreska pseudotaktowa	!
2B-\	ex-
1A	-cel-
=54-	=54-
2D,/	-ſis
!LO:TX:t=P:problem:kreska pseudotaktowa	!
2G\	O-
2B-\	-san-
!LO:TX:t=P:problem:kreska pseudotaktowa	!
2F,/	-na
=55-	=55-
2.BB-/	in
4C/	ex-
1D	-cel-
=56-	=56-
0G;>	-ſis.
==	==
*-	*-
!!!RDF**kern: > = above
!!!RDF**kern: < = below
!!!EED: Antoni Szymański
!!!EST: 2021-07-31
!!!ENC: Katarzyna Serwa
!!!END: 2021-07-04
